img/logo.svg

<?xml version="1.0" encoding="UTF-8"?>
<!-- Generated by Pixelmator Pro 3.2.1 -->
<svg width="46" height="26" viewBox="0 0 46 26" xmlns="http://www.w3.org/2000/svg" xmlns:xlink="http://www.w3.org/1999/xlink">
    <path id="logo" fill="#currentcolor" fill-rule="evenodd" stroke="none" d="M 15.003418 25 C 10.688895 25 7.192871 21.502024 7.192871 17.1875 L 8.755371 17.1875 C 8.755371 20.638548 11.552372 23.4375 15.003418 23.4375 C 18.454466 23.4375 21.253418 20.638548 21.253418 17.1875 L 22.815918 17.1875 C 22.815918 20.638548 25.614871 23.4375 29.065918 23.4375 C 32.516967 23.4375 35.313965 20.638548 35.313965 17.1875 L 36.876465 17.1875 C 36.876465 21.502024 33.38044 25 29.065918 25 C 25.97415 25 23.301019 23.20333 22.034668 20.597656 C 20.768306 23.2033 18.095165 25 15.003418 25 Z M 23.599121 16.40625 C 19.284595 16.40625 15.786621 12.908278 15.786621 8.59375 L 17.349121 8.59375 C 17.349121 12.044801 20.148072 14.841797 23.599121 14.841797 C 27.050172 14.841797 29.847168 12.044801 29.847168 8.59375 L 31.409668 8.59375 C 31.409668 12.044804 34.208614 14.841797 37.659668 14.841797 C 41.110726 14.841797 43.907715 12.044804 43.907715 8.59375 L 45.472168 8.59375 C 45.472168 12.908283 41.974205 16.40625 37.659668 16.40625 C 34.567898 16.40625 31.894771 14.609586 30.628418 12.003906 C 29.362538 14.60968 26.690892 16.40625 23.599121 16.40625 Z M 15.786621 8.59375 C 11.903332 8.59375 8.755371 11.741955 8.755371 15.625 L 7.192871 15.625 C 7.192871 11.741955 4.044666 8.59375 0.161621 8.59375 L 0.161621 7.03125 C 4.044666 7.03125 7.192871 3.883045 7.192871 0 L 8.755371 0 C 8.755371 3.883045 11.903332 7.03125 15.786621 7.03125 L 15.786621 8.59375 Z"/>
</svg>

<svg width="46" height="26" viewBox="0 0 46 26" xmlns="http://www.w3.org/2000/svg" xmlns:xlink="http://www.w3.org/1999/xlink">
	<path id="logo" fill="#currentcolor" fill-rule="evenodd" stroke="none" d="M15 25a7.81 7.81 0 0 1-7.8-7.81h1.56a6.25 6.25 0 1 0 12.5 0h1.56a6.25 6.25 0 0 0 12.5 0h1.56a7.81 7.81 0 0 1-14.85 3.4A7.81 7.81 0 0 1 15 25Zm8.6-8.6a7.81 7.81 0 0 1-7.81-7.8h1.56a6.25 6.25 0 0 0 12.5 0h1.56a6.25 6.25 0 0 0 12.5 0h1.56A7.81 7.81 0 0 1 30.63 12a7.81 7.81 0 0 1-7.03 4.4Zm-7.81-7.8a7.03 7.03 0 0 0-7.03 7.03H7.19A7.03 7.03 0 0 0 .16 8.59V7.03A7.03 7.03 0 0 0 7.2 0h1.57a7.03 7.03 0 0 0 7.03 7.03V8.6Z"/>
</svg>
